X: 4
T: Martin Wynne's
C: Martin Wynne
Z: UPipes & harp
S: https://thesession.org/tunes/347#setting47476
R: reel
M: 4/4
L: 1/8
K: Dmaj
|:AF ~F2 GE ~E2|F2 AF EFDE|FAFD E F2B|ABde fe e2|
AF ~F2 GE ~E2|F2 AF EFDE|FAFD E F2B|ABde fd d2:|
|:faaf gfeg|fedf edBc|dBAF DEFB|ABde fe e2|
faaf gfeg|fedf edBc|dBAF DEFB|ABde fd d2:|

